X:1
T:Preludio
T:Preludio
T:Sobre un tema opus 26 de Felix Mendelsshon 
T:Francisco Tárrega (1852 - 1909)
C:Fransisco Tárrega
%%score 1 ( 2 3 )
L:1/8
Q:1/4=110
M:2/4
K:D
V:1 treble nm="Piano" snm="Pno."
V:2 treble-8 nm="Klassisk gitarr" snm="Git."
V:3 treble-8 
V:1
"^Moderato" z4 | z4 |: z4 | z4 | z4 | z4 | z4 | z4 | z4 |1 z4 ::2 z4 || z4 | z4 | z4 :: z4 | z4 | %16
 z4 | z4 | z4 | z4 | z4 |1 z4 :|2 z4 || z4 | z4 | z4 | z4 | z4 | z4 | z4 | z4 | z4 | z4 | z4 | z4 | %35
 z4 | z4 | z4 | z4 | z4 | z4 | z4 | z4 | z4 |] %44
V:2
"^VII" !arpeggio![B,FBdfb]4 | z2 (f'/e'/)d'/c'/ |: (d'/c'/)b/^a/ b/=a/g/f/ | %3
 (g/f/)e/^d/ e/=d/c/B/ | (e/f/)g/e/ e/d/c/B/ | [ef]/c/[eg]/c/ [ef]/c/[eg]/c/ | %6
 (^A/B/)(c/d/) (e/d/)c/B/ | [ef]/c/[eg]/c/ [ef]/c/[eg]/c/ | ^A/G/(F/^E/) (F/=E/)(D/C/) |1 %9
 B,2 (f'/e'/)d'/c'/ ::2 B,/B/D/B/ (^E/^G/)(E/G/) || (^A/c/)(A/c/)"^VIII" (^d/f/)d/f/ | %12
"^VII" e/f/(g/f/) e/d/c/B/ | ^A/G/F/^E/ (F/=E/)(D/C/) :: B,/D/G/F/ (E/D/)(C/B,/) | %15
 C/E/(A/G/) (F/E/)^D/C/ | ^D/F/(B/A/) (G/F/)(E/D/) | E/G/=c/G/ (E/D/)=C/D/ | %18
 E/G/=c/G/ (E/D/)=C/D/ | E/=C/D/E/ =F/G/(A/B/) | =c/d/e/=f/ (g/f/)e/d/ |1 =c/G/E/D/ =C/D/E/G/ :|2 %22
 =c/G/(A/B/) c/G/(A/B/) || =c/G/(A/B/) c/B/c/!-(!d/ |!-)!{/e} e/^d/e/d/ e/d/e/d/ | ee ee | %26
"^VI" [cf^a]f/f/ ff | f2 [cf^a]2 |"^VII" [dfb]B/B/ BB | Bc d[^Ae] | [Bd][B^d] [Be][B^e] | %31
"^II" [Bdf]2 [ce^a]2 |"^VII" !arpeggio![FBdfb]B/B/ Bc | Bc d[^Ae] | [Bd][B^d] [Be][B^e] | %35
"^II" [Bdf]2 [ce^a]2 |"^VII" !arpeggio![B,FBdfb]2 (f'/e'/)d'/c'/ | (d'/c'/)b/^a/ (b/g/)f/^e/ | %38
"_dim." (f/e/)d/c/ (d/c/)B/^A/ | B/G/F/^E/ (F/=E/)D/C/ | (D/C/)B,/^A,/!p!"^II" B,2- | B,4 | %42
!pp! [^Aef]2 z2 |!pp!"^VII" [dfb]2 z2 |] %44
V:3
 x4 | x4 |: x4 | x4 | x4 | ^AB AB | [ef] z z2 | ^AB AB | [ef] z z2 |1 x4 ::2 z2 d'2 || c'2 =c'2 | %12
 b2 z2 | f2 z2 :: x4 | x4 | x4 | x4 | x4 | x4 | x4 |1 x4 :|2 x4 || x4 | E4 | E4 | E4 | z2 E2 | %28
 Dx GF | =FE DC | B,A, ^G,=G, | F,2 F2 | B,B GF | =FE DC | B,A, ^G,=G, | F,2 F2 | x4 | x4 | x4 | %39
 x4 | x4 | x4 | F,2 z2 | B,2 z2 |] %44

